swiss/communes/4551.svg

<?xml version="1.0" encoding="UTF-8" standalone="no"?>
<!-- Created with Inkscape (http://www.inkscape.org/) -->
<svg
   xmlns:svg="http://www.w3.org/2000/svg"
   xmlns="http://www.w3.org/2000/svg"
   version="1.0"
   width="220"
   height="263"
   id="svg2">
  <defs
     id="defs4" />
  <g
     id="layer1">
    <path
       d="M 1.0055243,1.0036286 L 1,169 C 11.173799,298.07121 211.23512,286.32185 219,169 L 219,1 L 1.0055243,1.0036286 z "
       style="fill:#0047ab;fill-opacity:1;fill-rule:evenodd;stroke:#000000;stroke-width:2;stroke-linecap:butt;stroke-linejoin:miter;stroke-miterlimit:4;stroke-dasharray:none;stroke-opacity:1"
       id="path2170" />
    <path
       d="M 148.34738,254.42106 C 146.66697,252.52764 145.65169,252.17611 146,249 L 163,195 C 164.38131,190.04386 165.86636,183.13811 157,183 L 103,183 C 85.672906,182.04736 77.302025,169.16629 84,150 L 98,107 C 99.07184,102.47601 99.17843,98.3717 93,97 L 33,97 C 20.903306,95.866195 8.715857,88.825682 15,66 L 31,15 C 32.834908,10.270637 32.779347,5.2480914 26.996329,1.4709683 L 61.985716,1.5034353 C 66.311409,3.134032 66.035444,7.161876 65,11 L 49,59 C 46.775088,68.180743 50.754471,67.765481 54,68 L 118,68 C 136.68057,72.790595 134.51352,83.995839 133,95 L 118,143 C 114.79673,153.93769 119.69684,154.95534 124,155 L 185,155 C 199.17166,156.65143 203.02308,167.60733 199,181 L 184,226 C 182.21041,230.73209 182.91771,232.25577 185.86962,233.84641 C 175.16486,242.80579 162.64388,249.38374 148.34738,254.42106 z "
       style="fill:#ffffff;fill-opacity:1;fill-rule:evenodd;stroke:#000000;stroke-width:1px;stroke-linecap:butt;stroke-linejoin:miter;stroke-opacity:1"
       id="path3143" />
  </g>
</svg>

<svg xmlns="http://www.w3.org/2000/svg" version="1.0" width="220" height="263"><path d="M1.006 1.004 1 169c10.174 129.071 210.235 117.322 218 0V1L1.006 1.004z" style="fill:#0047ab;fill-opacity:1;fill-rule:evenodd;stroke:#000;stroke-width:2;stroke-linecap:butt;stroke-linejoin:miter;stroke-miterlimit:4;stroke-dasharray:none;stroke-opacity:1"/><path d="M148.347 254.421c-1.68-1.893-2.695-2.245-2.347-5.421l17-54c1.381-4.956 2.866-11.862-6-12h-54c-17.327-.953-25.698-13.834-19-33l14-43c1.072-4.524 1.178-8.628-5-10H33c-12.097-1.134-24.284-8.174-18-31l16-51c1.835-4.73 1.78-9.752-4.004-13.529l34.99.032C66.31 3.134 66.036 7.162 65 11L49 59c-2.225 9.18 1.754 8.765 5 9h64c18.68 4.79 16.514 15.996 15 27l-15 48c-3.203 10.938 1.697 11.955 6 12h61c14.172 1.651 18.023 12.607 14 26l-15 45c-1.79 4.732-1.082 6.256 1.87 7.846-10.705 8.96-23.226 15.538-37.523 20.575z" style="fill:#fff;fill-opacity:1;fill-rule:evenodd;stroke:#000;stroke-width:1px;stroke-linecap:butt;stroke-linejoin:miter;stroke-opacity:1"/></svg>
